!!!OTL: Schwur und Treue (164), S.358
!!!id: T0337
**kern
*clefG2
*k[b-e-a-]
*E-:
{8e-
8g
=1
4.b-
8g
8cc
8b-
=2
4b-
4a-}
=3
{8a-
8g
=4
4f
4b-
16a
16b-
16cc
16b-
=5
4g}
4r
=6
{8e-
8g
=7
4.b-
8g
8cc
8b-
=8
4b-
4a-}
=9
{8a-
8g
=10
4f
4b-
16a
16b-
16cc
16b-
=11
16g
16b-
8.ee-
16dd
16cc
16b-}
=12
{8a-
8g
=13
4f
4b-
16a
16b-
16cc
16b-
=14
4g}
4r
==
*-
!!!minrhy: 16
!!!meters: 3/4 ]  ZZ[5
!!!cut: Schwur und Treue (164), S.358
!!!reg: Luxemburg
!!!trd: Singendes Volk, Esch-Alzette, 1937 posth.
!!!rhy1: X_X_  X__.X_X_X_  X__X__
!!!rhy2: X_X_  X__X__XXXX  X__0__
!!!key: T0337  16 Eb 3/4 ]  ZZ[5
!!!mod: ACHTTONSKALA DUR ?]  AMBITUS[8
!!!kad: 43453
!!!akz: 55_23_55_23_23_
!!!fot: 'a__b__a__bv_b__
!!!for: 'a__b__a__bw_b__
!!!fok: '^a_Sd_^a_$a_Sd_
!! PHRAS[AUFTAKTIG]
!!!fkt: Abschieds- und Wanderlieder, Heimatlieder,  Liebeslied
!!!bem: StraPen, fff Witry, 13.12.1932
!! THILL, Mathias:
!! PR[24] 2K[0] 2G[9] 3K[12] 3G[6] 4A[4] 4Ü[0] 5A[1] 6K[0] 6G[0]
!! 7K[0] 7G[0] 8A[0] MEHR[0] SI[33] ABS[67] SR[9] SP[24]
!! ST[12] 2k[9] 2g[27] 3k[3] 3g[1] 4d[0] 4ü[0] 5d[0] 6k[1] 6g[0]
!! 7k[1] 7g[0] 8d[0] mehr[0] si[43] dm[-10] sr[36] sp[7]
!! 1F[12] 2F[76] 3F[12] 4F[0] LF[0] 2P[0] 3P[0] 4P[0] TRI[0] DF[3] AB[68]
!! TF[0] U3K[0] U3[0] U4[0] U4Ü[0] U5[0] U6K[0] U6[0] U7K[0] U7[0]
!! N1[3] N2K[0] N2[0] N3K[0] N3[15] N4[6] N4Ü[0] N5[32] N6K[0] N6[21]
!!!n7k: 0] N7[9] O1[13] O2K[0] O2[1] O3K[0] O3[0] HÖ[0
